X:48
T:Reel Jaccques-Cartier
C:Joseph Allard
M:2/4
L:1/16
Z:abc by Bruce Osborne - bosborne@kos.net
K:Bb
FE|DFBF dBFD|EGBG ecAc|Bdfd gfec|BdcB AcBG|!
DFBF dBFD|EGBG ecAc|Bdfd gfec|Bgfd B2:|!
|:fe|dfBd cecA|FAcA BcdB|FBdB edcB|Af=eg f2f_e|!
dfBd cecA|FAcA BcdB|FBdB ecAc|Bgfd B2:|!
